svgs/sharp-regular/volume-low.svg

<svg xmlns="http://www.w3.org/2000/svg" viewBox="0 0 448 512"><!--! Font Awesome Pro 6.6.0 by @fontawesome - https://fontawesome.com License - https://fontawesome.com/license (Commercial License) Copyright 2024 Fonticons, Inc. --><path d="M159.9 316.1L146.2 304 128 304l-80 0 0-96 80 0 18.2 0 13.6-12.1L272 96.2l0 319.6L159.9 316.1zM0 352l48 0 80 0L272 480l48 0 0-48 0-352 0-48-48 0L128 160l-80 0L0 160l0 48 0 96 0 48zm409.6-19.2C432.9 315.3 448 287.4 448 256s-15.1-59.3-38.4-76.8l-28.8 38.4c11.7 8.8 19.2 22.7 19.2 38.4s-7.5 29.6-19.2 38.4l28.8 38.4z"/></svg>

<svg xmlns="http://www.w3.org/2000/svg" viewBox="0 0 448 512"><!--! Font Awesome Pro 6.4.2 by @fontawesome - https://fontawesome.com License - https://fontawesome.com/license (Commercial License) Copyright 2023 Fonticons, Inc. --><path d="M159.9 316.1L146.2 304H128 48V208h80 18.2l13.6-12.1L272 96.2V415.8L159.9 316.1zM0 352H48h80L272 480h48V432 80 32H272L128 160H48 0v48 96 48zm409.6-19.2C432.9 315.3 448 287.4 448 256s-15.1-59.3-38.4-76.8l-28.8 38.4c11.7 8.8 19.2 22.7 19.2 38.4s-7.5 29.6-19.2 38.4l28.8 38.4z"/></svg>
